assets/icon/dribbble.svg

<svg fill="none" height="30" viewBox="0 0 30 30" width="30" xmlns="http://www.w3.org/2000/svg"><path d="m27.191 8.723c-1.178-2.04157-2.8735-3.73652-4.9154-4.914-2.0695-1.20555-4.328-1.809-6.7756-1.809-2.4475 0-4.7061.60345-6.777 1.809-2.06955 1.20555-3.70845 2.84445-4.914 4.914-1.20555 2.0696-1.809 4.3295-1.809 6.777 0 2.4476.6021 4.7075 1.809 6.777 1.17764 2.0419 2.87314 3.7369 4.91535 4.914 2.06955 1.2056 4.32815 1.809 6.77565 1.809 2.4476 0 4.7061-.6034 6.777-1.809 2.0419-1.1775 3.7373-2.8724 4.9153-4.914 1.2056-2.0695 1.8077-4.3294 1.8077-6.777 0-2.4475-.6021-4.7074-1.809-6.777zm-11.691-4.482c2.7 0 5.0922.864 7.182 2.59065-1.242 1.5849-3.0861 2.889-5.535 3.91505-1.3527-2.4476-2.8188-4.4915-4.4024-6.12905.8975-.24815 1.8242-.37483 2.7554-.37665zm-8.7615 4.239c.98717-1.25357 2.23623-2.27641 3.6598-2.997 1.6362 1.62135 3.1388 3.645 4.5091 6.075-2.7.81-5.55395 1.215-8.5604 1.215-.77355 0-1.3581-.0176-1.755-.054.41374-1.5466 1.14473-2.99017 2.1465-4.239zm-2.4975 7.02c0-.0729.00405-.162.0135-.27s.0135-.1971.0135-.27c.3429.0189.86535.027 1.56735.027 3.5991 0 6.94705-.4954 10.04265-1.485.2524.5036.5143 1.0705.783 1.701-1.782.3955-3.6099 1.3581-5.4824 2.889-1.8724 1.5309-3.2386 3.1415-4.1026 4.833-1.89-2.1424-2.835-4.617-2.835-7.425zm11.259 11.259c-2.5569 0-4.8519-.7925-6.88635-2.3747.81135-1.6024 2.05745-3.1346 3.74085-4.5913 1.6821-1.458 3.3521-2.3665 5.0085-2.727 1.0449 2.8876 1.7516 5.8866 2.106 8.937-1.2651.4944-2.6107.7507-3.969.756zm9.558-5.346c-.8836 1.4236-2.0735 2.6324-3.483 3.5383-.324-2.808-.945-5.5444-1.8616-8.2093 1.2582-.0891 2.3827-.135 3.375-.135 1.0786 0 2.2761.0459 3.5896.135-.1762 1.6603-.7304 3.2581-1.62 4.671zm-1.674-6.75c-1.566 0-3.0145.0635-4.347.189-.2822-.7387-.5884-1.4681-.918-2.187 2.7891-1.2231 4.7682-2.7081 5.9387-4.455 1.62 1.9089 2.5029 4.0864 2.646 6.534-1.0962-.054-2.2032-.081-3.3197-.081z" fill="#a3a3a3"/></svg>

<svg width="30" height="30" viewBox="0 0 30 30" fill="none" xmlns="http://www.w3.org/2000/svg">
<path d="M27.191 8.723C26.013 6.68143 24.3175 4.98648 22.2756 3.809C20.2061 2.60345 17.9476 2 15.5 2C13.0525 2 10.7939 2.60345 8.723 3.809C6.65345 5.01455 5.01455 6.65345 3.809 8.723C2.60345 10.7926 2 13.0525 2 15.5C2 17.9476 2.6021 20.2075 3.809 22.277C4.98664 24.3189 6.68214 26.0139 8.72435 27.191C10.7939 28.3966 13.0525 29 15.5 29C17.9476 29 20.2061 28.3966 22.277 27.191C24.3189 26.0135 26.0143 24.3186 27.1923 22.277C28.3979 20.2075 29 17.9476 29 15.5C29 13.0525 28.3979 10.7926 27.191 8.723ZM15.5 4.241C18.2 4.241 20.5922 5.105 22.682 6.83165C21.44 8.41655 19.5959 9.72065 17.147 10.7467C15.7943 8.2991 14.3282 6.2552 12.7446 4.61765C13.6421 4.3695 14.5688 4.24282 15.5 4.241V4.241ZM6.7385 8.48C7.72567 7.22643 8.97473 6.20359 10.3983 5.483C12.0345 7.10435 13.5371 9.128 14.9074 11.558C12.2074 12.368 9.35345 12.773 6.347 12.773C5.57345 12.773 4.9889 12.7554 4.592 12.719C5.00574 11.1724 5.73673 9.72883 6.7385 8.48V8.48ZM4.241 15.5C4.241 15.4271 4.24505 15.338 4.2545 15.23C4.26395 15.122 4.268 15.0329 4.268 14.96C4.6109 14.9789 5.13335 14.987 5.83535 14.987C9.43445 14.987 12.7824 14.4916 15.878 13.502C16.1304 14.0056 16.3923 14.5725 16.661 15.203C14.879 15.5985 13.0511 16.5611 11.1786 18.092C9.3062 19.6229 7.94 21.2335 7.076 22.925C5.186 20.7826 4.241 18.308 4.241 15.5V15.5ZM15.5 26.759C12.9431 26.759 10.6481 25.9665 8.61365 24.3843C9.425 22.7819 10.6711 21.2497 12.3545 19.793C14.0366 18.335 15.7066 17.4265 17.363 17.066C18.4079 19.9536 19.1146 22.9526 19.469 26.003C18.2039 26.4974 16.8583 26.7537 15.5 26.759V26.759ZM25.058 21.413C24.1744 22.8366 22.9845 24.0454 21.575 24.9513C21.251 22.1433 20.63 19.4069 19.7134 16.742C20.9716 16.6529 22.0961 16.607 23.0884 16.607C24.167 16.607 25.3645 16.6529 26.678 16.742C26.5018 18.4023 25.9476 20.0001 25.058 21.413ZM23.384 14.663C21.818 14.663 20.3695 14.7265 19.037 14.852C18.7548 14.1133 18.4486 13.3839 18.119 12.665C20.9081 11.4419 22.8872 9.9569 24.0577 8.21C25.6777 10.1189 26.5606 12.2964 26.7037 14.744C25.6075 14.69 24.5005 14.663 23.384 14.663V14.663Z" fill="#A3A3A3"/>
</svg>
